X:1
T:Surat, 85.85 D
T:Surat, 85.85 D
T:Daniel Brink Towner, 1883
T:Public Domain Courtesy of the Cyber Hymnal™
C:Daniel Brink Towner, 1883
Z:Public Domain
Z:Courtesy of the Cyber Hymnal™
%%score ( 1 2 ) ( 3 4 )
L:1/8
Q:1/4=105
M:4/4
K:Ab
V:1 treble 
V:2 treble 
V:3 bass 
V:4 bass 
V:1
 [Ec]3 [Ec] [Ec]2 [EA]2 | [FA]3 [DF] [CE]2 [EA]2 | [GB]3 [GB] [GB]2 [Ac]2 | [GB]8 | %4
 [Ac]3 [Ac] [Ac]2 [EA]2 | [FA]3 [DF] [CE]2 [EA]2 | [GB]3 [Ac] [Bd]2 [EG]2 | [EA]8 | %8
 [Fd]3 [Fd] ([DF][FA]) [Fd]2 | [Ec]3 [Ec] ([CE][EA]) [Ac]2 | [GB]3 [GB] [FB]2 [=DA]2 | (G6 F2) | %12
 E3 [EA] [Ac]2 [EA]2 | [FA]2 ([EG][DF]) [CE]2 [EA]2 | [GB]3 [Ac] [Bd]2 [EG]2 | [EA]8 |] %16
V:2
 x8 | x8 | x8 | x8 | x8 | x8 | x8 | x8 | x8 | x8 | x8 | E8 | E3 x5 | x8 | x8 | x8 |] %16
V:3
 A,3 A, A,2 [A,C]2 | [D,D]3 [D,A,] [A,,A,]2 [A,,C]2 | [E,E]3 [E,E] [E,E]2 [E,E]2 | [E,E]8 | %4
 [A,E]3 [A,E] [A,E]2 [A,C]2 | [D,D]3 [D,A,] [A,,A,]2 [A,,C]2 | [E,E]3 [E,E] [E,E]2 [E,D]2 | %7
 [A,,C]8 | [D,A,]3 [D,A,] [D,A,]2 [D,A,]2 | [A,,A,]3 [A,,A,] (A,C) [A,,E]2 | %10
 [B,,E]3 [B,,E] [=D,B,]2 [F,B,]2 | (B,6 D2) | [A,C]3 [A,C] [A,E]2 [A,C]2 | %13
 [D,D]2 [D,A,]2 [A,,A,]2 [A,,C]2 | [E,E]3 [E,E] [E,E]2 [E,D]2 | [A,,C]8 |] %16
V:4
 A,3 A, A,2 x2 | x8 | x8 | x8 | x8 | x8 | x8 | x8 | x8 | x4 A,,2 x2 | x8 | E,8 | x8 | x8 | x8 | %15
 x8 |] %16

